X:1
T:Title
%%score { 1 | 2 }
L:1/8
Q:1/4=100
M:4/4
K:Eb
V:1 treble nm="Grand Piano"
V:2 bass 
V:1
 [GB]>[GB] [_G=A]>[=GB] [_Ac]2 [GB]2 | E>E E>F G4 | [DF]>[_D=E] [=DF]>[_EG] [FA]2 [DF]2 | %3
w: A.~J.~Showalter * * * * *|||
 [Fd]2 [DAc]2 [EGB]4 | [B,GB]>[B,GB] [C_G=A]>[B,=GB] [_Ac]2 [GB]2 | e>e e>d c4 | %6
w: |||
 e>e d>c [EGB]2 [B,E]2 | [EG]2 [A,DF]2 [G,E]4 | [DF]>[_D=E] [=DF]>[_EG] [FA]2 [DF]2 | %9
w: |||
 G>F G>[FA] [GB]4 | c>=B c>d e2 c2 | [GB]2 [EG]2 [DF]4 | G>_G =G>[FA] [GB]2 [Ge]2 | %13
w: ||||
 [Ge]>[Ge] e>d c4 | e>e d>c [EGB]2 [B,E]2 | [EG]2 [A,DF]2 [G,E]4 |] %16
w: |||
V:2
 [E,B,]>[E,B,] [E,C]>[E,B,] [E,E]2 [E,E]2 | [G,B,]>[G,B,] [G,B,]>[F,B,D] [E,B,E]4 | %2
 [B,,B,]>[B,,B,] [B,,B,]>[B,,B,] [B,,B,]2 [B,,B,]2 | [B,,B,]2 B,,2 E,4 | %4
 E,>E, E,>E, [E,E]2 [E,E]2 | [G,B,G]>[G,B,G] [G,=B,G]>[G,B,F] [A,CE]4 | %6
 [A,CA]>[A,CA] [A,CA]>[A,DA][K:bass] E,2 G,2 | B,2 B,,2 E,4 | %8
 [B,,B,]>[B,,B,] [B,,B,]>[B,,B,] [B,,B,]2 [B,,B,]2 | [E,B,E]>[E,B,D] [E,B,E]>[E,B,] [E,E]4 | %10
 [A,EA]>[A,EA] [A,EA]>[A,DA] [A,CA]2 [A,EA]2 | [E,E]2 [E,B,]2 [B,,B,]4 | %12
 [E,B,E]>[E,=A,E] [E,B,E]>[E,B,] [E,E]2 [E,B,]2 | [C,C]>[C,C][K:treble] [G,=B,G]>[G,B,F] [A,CE]4 | %14
 [A,CA]>[A,CA] [A,CA]>[A,DA][K:bass] E,2 G,2 | B,2 B,,2 E,4 |] %16

